X:622
T:The Connachtman's rambles
R:Jig
O:Ireland
B:O'Neill's 1003
S:Mike Long
Z:Transcription, arrangement, chords:Mike Long
M:6/8
L:1/8
K:D
BAG|:\
"D"FAA dAA|"A"BAA dAG|"D"FAA Afe|"G"dBB BAG|\
"D"FAA dAA|"A"BAB def|
"G"gfe dfe|[1 dBB BAG:|[2 dBB B2g\
|:"D"fbb "(A)"faa|"G"fef deg|"D"fbb faa|
"A"fed e2g|\
"D"fbb "(A)"faa|"G"fef def|gfe dfe|[1 dBB B2g:|[2 "(A)"dBB BAG|]
